; generated by PrusaSlicer 2.9.0 on 2025-03-06 at 03:09:18 UTC


;
;
; 

; external perimeters extrusion width = 0.45mm
; perimeters extrusion width = 0.45mm
; infill extrusion width = 0.45mm
; solid infill extrusion width = 0.45mm
; top infill extrusion width = 0.40mm
; support material extrusion width = 0.35mm
; first layer extrusion width = 0.42mm

M73 P0 R5
M73 Q0 S5
M201 X1000 Y1000 Z200 E5000 ; sets maximum accelerations, mm/sec^2
M203 X200 Y200 Z12 E120 ; sets maximum feedrates, mm / sec
M204 S1250 T1250 ; sets acceleration (S) and retract acceleration (R), mm/sec^2
M205 X8.00 Y8.00 Z0.40 E4.50 ; sets the jerk limits, mm/sec
M205 S0 T0 ; sets the minimum extruding and travel feed rate, mm/sec

; printing object MainSystem - ScreenCap-1.STL id:0 copy 0
; stop printing object MainSystem - ScreenCap-1.STL id:0 copy 0

;TYPE:Custom
M862.3 P "MK3S" ; printer model check
M862.1 P0.4 ; nozzle diameter check
M115 U3.14.1 ; tell printer latest fw version
G90 ; use absolute coordinates
M83 ; extruder relative mode
M104 S215 ; set extruder temp
M140 S60 ; set bed temp
M190 S60 ; wait for bed temp
M109 S215 ; wait for extruder temp
G28 W ; home all without mesh bed level
G80 X104.687 Y85.691 W40.626 H38.62 ; mesh bed levelling

G1 Z0.2 F720
G1 Y-3 F1000 ; go outside print area
G92 E0
G1 X60 E9 F1000 ; intro line
G1 X100 E12.5 F1000 ; intro line
M73 P1 R5
M73 Q1 S5

G92 E0
M221 S95

; Don't change E values below. Excessive value can damage the printer.

M907 E538 ; set extruder motor current
G21 ; set units to millimeters
G90 ; use absolute coordinates
M83 ; use relative distances for extrusion

M900 K0.05 ; Filament gcode LA 1.5
M900 K30 ; Filament gcode LA 1.0




M107
;LAYER_CHANGE
;Z:0.2
;HEIGHT:0.2
G1 E-.8 F2100
G1 Z.6 F720
G1 X106.333 Y87.724 F10800
G1 Z.2 F720
M73 P2 R5
M73 Q2 S5
G1 E.8 F2100
M204 S800
;TYPE:Skirt/Brim
;WIDTH:0.42
G1 F1200
G1 X107.244 Y86.915 E.0382
G1 X108.298 Y86.325 E.03787
G1 X109.461 Y85.973 E.0381
G1 X110.306 Y85.88 E.02665
G1 X139.678 Y85.88 E.92094
G1 X140.514 Y85.969 E.02636
G1 X141.471 Y86.233 E.03113
G1 X142.238 Y86.588 E.0265
G1 X143.23 Y87.291 E.03812
G1 X143.903 Y88.003 E.03072
G1 X144.533 Y88.995 E.03685
G1 X144.865 Y89.816 E.02777
G1 X145.075 Y90.773 E.03072
G1 X145.12 Y118.617 E.87303
G1 X145.014 Y119.591 E.03072
M73 P3 R5
M73 Q3 S5
G1 X144.651 Y120.751 E.03811
G1 X144.255 Y121.498 E.02651
G1 X143.662 Y122.278 E.03072
G1 X142.752 Y123.084 E.03811
G1 X141.69 Y123.676 E.03812
G1 X140.526 Y124.026 E.03811
G1 X139.503 Y124.122 E.03222
G1 X110.254 Y124.116 E.91708
G1 X109.11 Y123.945 E.03627
G1 X108.309 Y123.675 E.0265
G1 X107.443 Y123.216 E.03073
G1 X106.77 Y122.705 E.02649
G1 X105.961 Y121.815 E.03771
G1 X105.354 Y120.762 E.03811
G1 X104.988 Y119.603 E.03811
G1 X104.875 Y118.498 E.03483
G1 X104.879 Y91.379 E.8503
G1 X105.034 Y90.186 E.03772
M73 P4 R5
M73 Q4 S5
G1 X105.344 Y89.257 E.03071
G1 X105.739 Y88.509 E.02652
G1 X106.297 Y87.772 E.02898
M204 S1000
;WIPE_START
G1 F8640
G1 X106.333 Y87.724 E-.01385
G1 X107.244 Y86.915 E-.28132
G1 X108.298 Y86.325 E-.27891
G1 X109.235 Y86.041 E-.22592
;WIPE_END
G1 Z.6 F720
; printing object MainSystem - ScreenCap-1.STL id:0 copy 0
G1 X138.169 Y116.428 F10800
G1 Z.2 F720
G1 E.8 F2100
M204 S800
;TYPE:External perimeter
;WIDTH:0.548513
G1 F1200
G1 X138.196 Y116.406 E.00146
;WIDTH:0.5345
G1 X138.771 Y116.143 E.02584
;WIDTH:0.542602
G1 X139.389 Y116.039 E.02604
;WIDTH:0.549198
G1 X139.903 Y116.081 E.02171
G1 X140.227 Y116.144 E.01389
;WIDTH:0.53366
G1 X140.803 Y116.406 E.02582
;WIDTH:0.542027
G1 X141.305 Y116.822 E.02706
;WIDTH:0.547985
G1 X141.605 Y117.24 E.02161
G1 X141.755 Y117.506 E.01282
;WIDTH:0.532969
G1 X141.929 Y118.093 E.02495
;WIDTH:0.540721
G1 X141.948 Y118.794 E.02903
;WIDTH:0.547532
G1 X141.822 Y119.292 E.02155
G1 X141.726 Y119.554 E.01171
;WIDTH:0.532376
G1 X141.385 Y120.086 E.02572
;WIDTH:0.539157
G1 X140.863 Y120.555 E.02896
;WIDTH:0.546942
G1 X140.397 Y120.784 E.02176
G1 X140.16 Y120.872 E.0106
;WIDTH:0.532065
G1 X139.534 Y120.963 E.02573
;WIDTH:0.537792
G1 X138.838 Y120.875 E.02887
;WIDTH:0.546223
G1 X138.336 Y120.662 E.02282
G1 X138.138 Y120.552 E.00948
;WIDTH:0.531617
G1 X137.66 Y120.138 E.0257
;WIDTH:0.536566
G1 X137.271 Y119.555 E.02877
;WIDTH:0.545371
G1 X137.096 Y119.01 E.02391
;WIDTH:0.548578
G1 X137.047 Y118.498 E.02163
G1 X137.096 Y117.987 E.02158
;WIDTH:0.545372
G1 X137.242 Y117.506 E.021
;WIDTH:0.544379
G1 X137.554 Y116.994 E.025
;WIDTH:0.548513
G1 X137.914 Y116.628 E.02158
G1 X138.121 Y116.465 E.01108
M204 S1000
;WIPE_START
G1 F8640
G1 X138.169 Y116.428 E-.01399
G1 X138.196 Y116.406 E-.00804
G1 X138.771 Y116.143 E-.146
G1 X139.389 Y116.039 E-.1447
G1 X139.903 Y116.081 E-.11908
G1 X140.227 Y116.144 E-.07621
G1 X140.803 Y116.406 E-.14611
G1 X141.289 Y116.809 E-.14587
;WIPE_END
G1 Z.6 F720
G1 X141.182 Y116.063 F10800
G1 Z.2 F720
G1 E.8 F2100
M204 S800
;WIDTH:0.546943
G1 F1200
G1 X141.186 Y116.065 E.00019
;WIDTH:0.539157
G1 X141.699 Y116.521 E.02832
;WIDTH:0.547985
G1 X142.047 Y116.998 E.0248
G1 X142.31 Y117.58 E.02682
;WIDTH:0.54728
G1 X142.444 Y118.206 E.02685
;WIDTH:0.542699
G1 X142.416 Y118.973 E.0319
;WIDTH:0.547532
G1 X142.293 Y119.469 E.02144
;WIDTH:0.54799
G1 X142.019 Y120.046 E.02683
G1 X141.63 Y120.554 E.02687
;WIDTH:0.542029
G1 X141.186 Y120.932 E.0242
;WIDTH:0.539157
G1 X141.02 Y121.031 E.00798
;WIDTH:0.546942
G1 X140.569 Y121.256 E.02112
;WIDTH:0.548327
G1 X139.951 Y121.421 E.02688
G1 X139.315 Y121.452 E.02676
;WIDTH:0.543231
G1 X138.578 Y121.306 E.03126
;WIDTH:0.546223
G1 X138.09 Y121.099 E.02218
;WIDTH:0.548514
G1 X137.565 Y120.734 E.02688
G1 X137.128 Y120.267 E.02689
;WIDTH:0.544389
G1 X136.772 Y119.639 E.0301
;WIDTH:0.535467
G1 X136.585 Y118.978 E.02813
;WIDTH:0.548578
G1 X136.543 Y118.471 E.02139
G1 X136.616 Y117.836 E.02687
;WIDTH:0.545372
G1 X136.852 Y117.181 E.02909
;WIDTH:0.536568
G1 X137.232 Y116.603 E.02839
;WIDTH:0.548513
G1 X137.606 Y116.228 E.02227
G1 X138.138 Y115.873 E.02689
;WIDTH:0.546222
G1 X138.762 Y115.633 E.02798
;WIDTH:0.537787
G1 X139.433 Y115.542 E.02786
;WIDTH:0.549198
G1 X140.005 Y115.586 E.02415
G1 X140.619 Y115.761 E.02688
;WIDTH:0.546943
G1 X141.129 Y116.035 E.02426
M204 S1000
;WIPE_START
G1 F8640
G1 X141.182 Y116.063 E-.01384
G1 X141.186 Y116.065 E-.00103
G1 X141.699 Y116.521 E-.15848
G1 X142.047 Y116.998 E-.13634
M73 Q5 S5
G1 X142.31 Y117.58 E-.14747
G1 X142.444 Y118.206 E-.14782
G1 X142.416 Y118.973 E-.17722
G1 X142.397 Y119.048 E-.0178
M73 P5 R5
;WIPE_END
G1 Z.6 F720
G1 X138.806 Y93.861 F10800
G1 Z.2 F720
G1 E.8 F2100
M204 S800
;WIDTH:0.546222
G1 F1200
G1 X138.337 Y93.662 E.02132
G1 X138.139 Y93.552 E.00948
;WIDTH:0.531616
G1 X137.644 Y93.121 E.02667
;WIDTH:0.536568
G1 X137.271 Y92.555 E.02782
;WIDTH:0.545372
G1 X137.096 Y92.01 E.02391
;WIDTH:0.548577
G1 X137.048 Y91.498 E.02162
G1 X137.096 Y90.987 E.02158
;WIDTH:0.545371
G1 X137.243 Y90.506 E.02101
;WIDTH:0.544389
G1 X137.554 Y89.994 E.02498
;WIDTH:0.548512
G1 X137.915 Y89.628 E.02161
G1 X138.197 Y89.406 E.01509
;WIDTH:0.534498
G1 X138.772 Y89.143 E.02584
;WIDTH:0.5426
G1 X139.39 Y89.039 E.02604
;WIDTH:0.549194
G1 X139.904 Y89.081 E.02171
G1 X140.228 Y89.144 E.01389
;WIDTH:0.533566
G1 X140.785 Y89.396 E.02494
;WIDTH:0.54219
G1 X141.307 Y89.824 E.02802
;WIDTH:0.547983
G1 X141.606 Y90.24 E.02151
G1 X141.756 Y90.506 E.01282
;WIDTH:0.532968
G1 X141.93 Y91.093 E.02495
;WIDTH:0.540722
G1 X141.948 Y91.794 E.02903
;WIDTH:0.54753
G1 X141.823 Y92.292 E.02154
G1 X141.727 Y92.554 E.01171
;WIDTH:0.532376
G1 X141.385 Y93.086 E.02574
;WIDTH:0.539156
G1 X140.864 Y93.555 E.02892
;WIDTH:0.546942
G1 X140.397 Y93.784 E.0218
G1 X140.161 Y93.872 E.01056
;WIDTH:0.532067
G1 X139.535 Y93.963 E.02573
;WIDTH:0.537788
G1 X138.863 Y93.878 E.02787
M204 S1000
;WIPE_START
G1 F8640
G1 X138.806 Y93.861 E-.01373
G1 X138.337 Y93.662 E-.11764
G1 X138.139 Y93.552 E-.0523
G1 X137.644 Y93.121 E-.15155
G1 X137.271 Y92.555 E-.15652
G1 X137.096 Y92.01 E-.13217
G1 X137.048 Y91.498 E-.11874
G1 X137.071 Y91.251 E-.05735
;WIPE_END
G1 Z.6 F720
G1 X136.833 Y90.235 F10800
G1 Z.2 F720
G1 E.8 F2100
M204 S800
;WIDTH:0.545371
G1 F1200
G1 X136.852 Y90.181 E.00239
;WIDTH:0.536566
G1 X137.233 Y89.603 E.02842
;WIDTH:0.548512
G1 X137.607 Y89.228 E.02227
G1 X138.139 Y88.873 E.02689
;WIDTH:0.546223
G1 X138.763 Y88.633 E.02798
;WIDTH:0.537785
G1 X139.434 Y88.542 E.02786
;WIDTH:0.549194
G1 X140.006 Y88.586 E.02415
G1 X140.62 Y88.761 E.02688
;WIDTH:0.546723
G1 X141.184 Y89.064 E.02682
;WIDTH:0.541278
G1 X141.698 Y89.518 E.02842
;WIDTH:0.547983
G1 X142.048 Y89.998 E.02495
G1 X142.311 Y90.58 E.02682
;WIDTH:0.54728
G1 X142.445 Y91.206 E.02685
;WIDTH:0.542698
G1 X142.417 Y91.973 E.0319
;WIDTH:0.54753
G1 X142.294 Y92.469 E.02144
;WIDTH:0.54799
G1 X142.02 Y93.046 E.02683
G1 X141.63 Y93.554 E.0269
;WIDTH:0.542028
G1 X141.187 Y93.932 E.02417
;WIDTH:0.539156
G1 X141.02 Y94.031 E.00801
;WIDTH:0.546942
G1 X140.569 Y94.256 E.02112
;WIDTH:0.54833
G1 X139.952 Y94.421 E.02684
G1 X139.316 Y94.452 E.02676
;WIDTH:0.543233
G1 X138.579 Y94.306 E.03126
;WIDTH:0.546222
G1 X138.091 Y94.099 E.02218
;WIDTH:0.548514
G1 X137.565 Y93.734 E.02692
G1 X137.129 Y93.267 E.02686
;WIDTH:0.544388
G1 X136.773 Y92.639 E.0301
;WIDTH:0.535468
G1 X136.586 Y91.978 E.02813
;WIDTH:0.548577
G1 X136.544 Y91.471 E.02139
G1 X136.617 Y90.836 E.02687
;WIDTH:0.545371
G1 X136.813 Y90.292 E.02416
M204 S1000
;WIPE_START
G1 F8640
G1 X136.833 Y90.235 E-.01395
G1 X136.852 Y90.181 E-.01322
G1 X137.233 Y89.603 E-.15985
G1 X137.607 Y89.228 E-.12229
G1 X138.139 Y88.873 E-.14768
G1 X138.763 Y88.633 E-.15437
G1 X139.434 Y88.542 E-.15635
G1 X139.573 Y88.553 E-.03229
;WIPE_END
G1 Z.6 F720
G1 X109.484 Y93.723 F10800
G1 Z.2 F720
G1 E.8 F2100
M204 S800
;WIDTH:0.546223
G1 F1200
G1 X109.337 Y93.661 E.00668
G1 X109.139 Y93.552 E.00946
;WIDTH:0.531616
G1 X108.661 Y93.137 E.02572
;WIDTH:0.536567
G1 X108.271 Y92.554 E.02879
;WIDTH:0.545364
G1 X108.096 Y92.009 E.02391
;WIDTH:0.548581
G1 X108.048 Y91.498 E.02158
M73 Q6 S5
G1 X108.096 Y90.986 E.02162
;WIDTH:0.545371
G1 X108.243 Y90.505 E.02101
;WIDTH:0.544389
G1 X108.554 Y89.994 E.02494
;WIDTH:0.548514
G1 X108.915 Y89.627 E.02164
G1 X109.197 Y89.405 E.01509
;WIDTH:0.534499
G1 X109.772 Y89.142 E.02584
M73 P6 R5
;WIDTH:0.542604
G1 X110.39 Y89.038 E.02604
;WIDTH:0.549189
G1 X110.904 Y89.08 E.02171
G1 X111.228 Y89.143 E.01389
;WIDTH:0.533658
G1 X111.804 Y89.405 E.02582
;WIDTH:0.542029
G1 X112.306 Y89.822 E.02708
;WIDTH:0.547982
G1 X112.606 Y90.239 E.02157
G1 X112.756 Y90.506 E.01286
;WIDTH:0.532957
G1 X112.935 Y91.113 E.02579
;WIDTH:0.540653
G1 X112.949 Y91.791 E.02807
;WIDTH:0.547533
G1 X112.823 Y92.291 E.02164
G1 X112.727 Y92.553 E.01171
;WIDTH:0.532378
G1 X112.385 Y93.085 E.02574
;WIDTH:0.539158
G1 X111.864 Y93.555 E.02895
;WIDTH:0.546935
G1 X111.397 Y93.783 E.02178
G1 X111.161 Y93.871 E.01056
;WIDTH:0.532068
G1 X110.535 Y93.962 E.02573
;WIDTH:0.537787
G1 X109.839 Y93.875 E.02886
;WIDTH:0.546223
G1 X109.539 Y93.747 E.01365
M204 S1000
;WIPE_START
G1 F8640
G1 X109.484 Y93.723 E-.01386
G1 X109.337 Y93.661 E-.03684
G1 X109.139 Y93.552 E-.05219
G1 X108.661 Y93.137 E-.14617
G1 X108.271 Y92.554 E-.16196
G1 X108.096 Y92.009 E-.13217
G1 X108.048 Y91.498 E-.11851
G1 X108.096 Y90.986 E-.11874
G1 X108.121 Y90.905 E-.01956
;WIPE_END
G1 Z.6 F720
G1 X113.02 Y93.046 F10800
G1 Z.2 F720
G1 E.8 F2100
M204 S800
;WIDTH:0.547992
G1 F1200
G1 X112.63 Y93.553 E.02686
;WIDTH:0.542031
G1 X112.187 Y93.931 E.02417
;WIDTH:0.539158
G1 X112.02 Y94.03 E.00801
;WIDTH:0.546935
G1 X111.569 Y94.255 E.02112
;WIDTH:0.548332
G1 X110.952 Y94.42 E.02684
G1 X110.316 Y94.451 E.02676
;WIDTH:0.543233
G1 X109.579 Y94.305 E.03126
;WIDTH:0.546223
G1 X109.091 Y94.098 E.02218
;WIDTH:0.548515
G1 X108.565 Y93.733 E.02692
G1 X108.129 Y93.266 E.02686
;WIDTH:0.54439
G1 X107.773 Y92.638 E.0301
;WIDTH:0.535467
G1 X107.586 Y91.977 E.02813
;WIDTH:0.548581
G1 X107.544 Y91.47 E.02139
G1 X107.617 Y90.835 E.02687
;WIDTH:0.545371
G1 X107.852 Y90.18 E.02907
;WIDTH:0.536567
G1 X108.233 Y89.603 E.02838
;WIDTH:0.548514
G1 X108.607 Y89.227 E.0223
G1 X109.139 Y88.872 E.02689
;WIDTH:0.546225
G1 X109.763 Y88.632 E.02798
;WIDTH:0.537787
G1 X110.434 Y88.541 E.02786
;WIDTH:0.549189
G1 X111.006 Y88.585 E.02415
G1 X111.62 Y88.761 E.02689
;WIDTH:0.546945
G1 X112.187 Y89.064 E.02694
;WIDTH:0.539157
G1 X112.7 Y89.52 E.02832
;WIDTH:0.547982
G1 X113.048 Y89.997 E.0248
G1 X113.311 Y90.579 E.02682
;WIDTH:0.547535
G1 X113.446 Y91.204 E.02683
;WIDTH:0.540652
G1 X113.417 Y91.972 E.03181
;WIDTH:0.547533
G1 X113.294 Y92.468 E.02144
;WIDTH:0.547992
G1 X113.045 Y92.991 E.02433
M204 S1000
;WIPE_START
G1 F8640
G1 X113.02 Y93.046 E-.01395
G1 X112.63 Y93.553 E-.1477
G1 X112.187 Y93.931 E-.13447
G1 X112.02 Y94.03 E-.04483
G1 X111.569 Y94.255 E-.11638
G1 X110.952 Y94.42 E-.14747
G1 X110.316 Y94.451 E-.14703
G1 X110.111 Y94.411 E-.04817
;WIPE_END
G1 Z.6 F720
G1 X110.5 Y116.047 F10800
G1 Z.2 F720
G1 E.8 F2100
M204 S800
;WIDTH:0.549193
G1 F1200
G1 X110.903 Y116.08 E.01702
G1 X111.227 Y116.143 E.01389
;WIDTH:0.533659
G1 X111.803 Y116.405 E.02582
;WIDTH:0.542029
G1 X112.305 Y116.822 E.02708
;WIDTH:0.547993
G1 X112.605 Y117.239 E.02157
G1 X112.755 Y117.505 E.01282
;WIDTH:0.532972
G1 X112.929 Y118.092 E.02495
;WIDTH:0.540723
G1 X112.948 Y118.793 E.02903
;WIDTH:0.547534
G1 X112.822 Y119.291 E.02155
G1 X112.726 Y119.553 E.01171
;WIDTH:0.532377
G1 X112.385 Y120.085 E.02572
;WIDTH:0.539156
G1 X111.863 Y120.555 E.02898
;WIDTH:0.546943
G1 X111.397 Y120.783 E.02174
G1 X111.16 Y120.872 E.01061
;WIDTH:0.532065
G1 X110.534 Y120.962 E.02572
;WIDTH:0.537791
G1 X109.838 Y120.875 E.02886
;WIDTH:0.546225
G1 X109.336 Y120.661 E.02284
G1 X109.138 Y120.552 E.00946
;WIDTH:0.531618
G1 X108.66 Y120.137 E.02572
;WIDTH:0.536568
G1 X108.271 Y119.554 E.02877
;WIDTH:0.545372
G1 X108.096 Y119.009 E.02391
;WIDTH:0.548581
G1 X108.047 Y118.498 E.02158
G1 X108.096 Y117.986 E.02163
;WIDTH:0.545371
G1 X108.242 Y117.505 E.021
;WIDTH:0.544381
G1 X108.554 Y116.994 E.02496
;WIDTH:0.548513
G1 X108.914 Y116.627 E.02161
G1 X109.196 Y116.405 E.01509
;WIDTH:0.534498
G1 X109.771 Y116.142 E.02584
;WIDTH:0.542606
G1 X110.389 Y116.038 E.02604
;WIDTH:0.549193
G1 X110.44 Y116.042 E.00215
M204 S1000
;WIPE_START
G1 F8640
G1 X110.5 Y116.047 E-.0139
G1 X110.903 Y116.08 E-.09337
G1 X111.227 Y116.143 E-.07621
G1 X111.803 Y116.405 E-.14611
G1 X112.305 Y116.822 E-.15069
G1 X112.605 Y117.239 E-.11862
G1 X112.755 Y117.505 E-.07051
M73 Q7 S5
G1 X112.916 Y118.047 E-.13059
;WIPE_END
G1 Z.6 F720
G1 X113.444 Y118.205 F10800
G1 Z.2 F720
M73 P7 R5
G1 E.8 F2100
M204 S800
;WIDTH:0.542692
G1 F1200
G1 X113.416 Y118.972 E.03189
;WIDTH:0.547534
G1 X113.293 Y119.468 E.02144
;WIDTH:0.547991
G1 X113.019 Y120.046 E.02686
G1 X112.63 Y120.553 E.02684
;WIDTH:0.54203
G1 X112.186 Y120.931 E.0242
;WIDTH:0.539156
G1 X112.02 Y121.03 E.00798
;WIDTH:0.546943
G1 X111.569 Y121.255 E.02112
;WIDTH:0.548327
G1 X110.951 Y121.42 E.02688
G1 X110.315 Y121.451 E.02676
;WIDTH:0.54323
G1 X109.578 Y121.305 E.03126
;WIDTH:0.546225
G1 X109.09 Y121.098 E.02218
;WIDTH:0.548515
G1 X108.565 Y120.733 E.02688
G1 X108.128 Y120.266 E.02689
;WIDTH:0.544391
G1 X107.772 Y119.638 E.0301
;WIDTH:0.535467
G1 X107.585 Y118.977 E.02813
;WIDTH:0.548581
G1 X107.543 Y118.47 E.02139
G1 X107.616 Y117.835 E.02687
;WIDTH:0.545371
G1 X107.852 Y117.18 E.02909
;WIDTH:0.536568
G1 X108.232 Y116.603 E.02836
;WIDTH:0.548513
G1 X108.606 Y116.227 E.0223
G1 X109.138 Y115.872 E.02689
;WIDTH:0.546221
G1 X109.762 Y115.632 E.02798
;WIDTH:0.537786
G1 X110.434 Y115.541 E.0279
;WIDTH:0.549193
G1 X111.005 Y115.585 E.02411
G1 X111.619 Y115.761 E.02689
;WIDTH:0.546943
G1 X112.186 Y116.064 E.02694
;WIDTH:0.539157
G1 X112.699 Y116.52 E.02832
;WIDTH:0.547993
G1 X113.047 Y116.997 E.0248
G1 X113.311 Y117.579 E.02684
;WIDTH:0.547282
G1 X113.432 Y118.146 E.02431
M204 S1000
M106 S84.15
;LAYER_CHANGE
;Z:0.4
;HEIGHT:0.2
;BEFORE_LAYER_CHANGE
G92 E0.0
;0.4


;WIPE_START
G1 F8640
G1 X113.444 Y118.205 E-.0139
G1 X113.416 Y118.972 E-.17722
G1 X113.293 Y119.468 E-.118
G1 X113.019 Y120.046 E-.1477
G1 X112.63 Y120.553 E-.14756
G1 X112.186 Y120.931 E-.13464
G1 X112.02 Y121.03 E-.04463
G1 X111.957 Y121.062 E-.01635
;WIPE_END
G1 Z.4 F720
;AFTER_LAYER_CHANGE
