; generated by PrusaSlicer 2.9.0 on 2025-02-25 at 01:06:04 UTC


;
;
; 

; external perimeters extrusion width = 0.45mm
; perimeters extrusion width = 0.45mm
; infill extrusion width = 0.45mm
; solid infill extrusion width = 0.45mm
; top infill extrusion width = 0.40mm
; first layer extrusion width = 0.42mm

; external perimeters extrusion width = 0.45mm
; perimeters extrusion width = 0.45mm
; infill extrusion width = 0.45mm
; solid infill extrusion width = 0.45mm
; top infill extrusion width = 0.40mm
; first layer extrusion width = 0.42mm

M73 P0 R407
M73 Q0 S421
M201 X1000 Y1000 Z200 E5000 ; sets maximum accelerations, mm/sec^2
M203 X200 Y200 Z12 E120 ; sets maximum feedrates, mm / sec
M204 S1250 T1250 ; sets acceleration (S) and retract acceleration (R), mm/sec^2
M205 X8.00 Y8.00 Z0.40 E4.50 ; sets the jerk limits, mm/sec
M205 S0 T0 ; sets the minimum extruding and travel feed rate, mm/sec

; printing object Assem1 - TestLid-2-1.STL id:1 copy 0
; stop printing object Assem1 - TestLid-2-1.STL id:1 copy 0
; printing object Assem1 - TestChamber-2-1.STL id:0 copy 0
; stop printing object Assem1 - TestChamber-2-1.STL id:0 copy 0

;TYPE:Custom
M862.3 P "MK3S" ; printer model check
M862.1 P0.4 ; nozzle diameter check
M115 U3.14.1 ; tell printer latest fw version
G90 ; use absolute coordinates
M83 ; extruder relative mode
M104 S215 ; set extruder temp
M140 S60 ; set bed temp
M190 S60 ; wait for bed temp
M109 S215 ; wait for extruder temp
G28 W ; home all without mesh bed level
G80 X21.6229 Y54.6229 W206.754 H100.754 ; mesh bed levelling

G1 Z0.2 F720
G1 Y-3 F1000 ; go outside print area
G92 E0
G1 X60 E9 F1000 ; intro line
G1 X100 E12.5 F1000 ; intro line

G92 E0
M221 S95

; Don't change E values below. Excessive value can damage the printer.

M907 E538 ; set extruder motor current
G21 ; set units to millimeters
G90 ; use absolute coordinates
M83 ; use relative distances for extrusion

M900 K0.05 ; Filament gcode LA 1.5
M900 K30 ; Filament gcode LA 1.0




M107
;LAYER_CHANGE
;Z:0.2
;HEIGHT:0.2
G1 E-.8 F2100
G1 Z.6 F720
G1 X23.235 Y54.949 F10800
G1 Z.2 F720
M73 Q0 S420
G1 E.8 F2100
M204 S800
;TYPE:Skirt/Brim
;WIDTH:0.42
G1 F1200
G1 X24 Y54.811 E.02437
G1 X226 Y54.811 E6.33357
G1 X227.248 Y55.202 E.04101
G1 X228.051 Y56.235 E.04102
G1 X228.189 Y57 E.02437
G1 X228.189 Y153 E3.01001
G1 X227.798 Y154.248 E.04101
G1 X226.765 Y155.051 E.04102
G1 X226 Y155.189 E.02437
G1 X24 Y155.189 E6.33357
G1 X22.752 Y154.798 E.04101
G1 X21.949 Y153.765 E.04102
G1 X21.811 Y153 E.02437
G1 X21.811 Y57 E3.01001
G1 X22.202 Y55.752 E.04101
M73 P0 R406
G1 X23.188 Y54.986 E.03915
M204 S1000
;WIPE_START
G1 F8640
G1 X23.235 Y54.949 E-.01381
G1 X24 Y54.811 E-.17949
G1 X26.628 Y54.811 E-.6067
;WIPE_END
G1 Z.6 F720
; printing object Assem1 - TestChamber-2-1.STL id:0 copy 0
G1 X119.213 Y152.213 F10800
G1 Z.2 F720
G1 E.8 F2100
M204 S800
;TYPE:Perimeter
;WIDTH:0.419999
G1 F1200
G1 X24.787 Y152.213 E2.96066
G1 X24.787 Y57.787 E2.96066
G1 X119.213 Y57.787 E2.96066
G1 X119.213 Y105 E1.48033
G1 X119.213 Y152.153 E1.47845
M204 S1000
G1 X119.59 Y152.59 F10800
M204 S800
;TYPE:External perimeter
G1 F1200
G1 X24.41 Y152.59 E2.9843
G1 X24.41 Y57.41 E2.9843
G1 X119.59 Y57.41 E2.9843
M73 Q0 S419
G1 X119.59 Y105 E1.49215
G1 X119.59 Y152.53 E1.49027
M204 S1000
;WIPE_START
G1 F8640
G1 X119.59 Y152.59 E-.01385
G1 X116.185 Y152.59 E-.78615
;WIPE_END
G1 Z.6 F720
G1 X119.043 Y58.719 F10800
G1 Z.2 F720
G1 E.8 F2100
M204 S800
;TYPE:Solid infill
;WIDTH:0.420006
G1 F1200
G1 X118.451 Y58.126 E.02627
G1 X117.917 Y58.126 E.01674
G1 X118.874 Y59.083 E.04244
G1 X118.874 Y59.616 E.01671
G1 X117.384 Y58.126 E.06607
G1 X116.851 Y58.126 E.01671
G1 X118.874 Y60.149 E.0897
G1 X118.874 Y60.682 E.01671
G1 X116.318 Y58.126 E.11334
G1 X115.784 Y58.126 E.01674
G1 X118.874 Y61.216 E.13702
G1 X118.874 Y61.749 E.01671
G1 X115.251 Y58.126 E.16065
G1 X114.718 Y58.126 E.01671
G1 X118.874 Y62.282 E.18429
G1 X118.874 Y62.816 E.01674
G1 X114.184 Y58.126 E.20797
G1 X113.651 Y58.126 E.01671
G1 X118.874 Y63.349 E.2316
G1 X118.874 Y63.882 E.01671
G1 X113.118 Y58.126 E.25524
G1 X112.585 Y58.126 E.01671
G1 X118.874 Y64.415 E.27887
G1 X118.874 Y64.949 E.01674
G1 X112.051 Y58.126 E.30255
G1 X111.518 Y58.126 E.01671
G1 X118.874 Y65.482 E.32618
G1 X118.874 Y66.015 E.01671
G1 X110.985 Y58.126 E.34982
G1 X110.451 Y58.126 E.01674
G1 X118.874 Y66.549 E.3735
G1 X118.874 Y67.082 E.01671
G1 X109.918 Y58.126 E.39713
G1 X109.385 Y58.126 E.01671
G1 X118.874 Y67.615 E.42077
G1 X118.874 Y68.148 E.01671
G1 X108.852 Y58.126 E.4444
G1 X108.318 Y58.126 E.01674
G1 X118.874 Y68.682 E.46808
G1 X118.874 Y69.215 E.01671
G1 X107.785 Y58.126 E.49171
G1 X107.252 Y58.126 E.01671
G1 X118.874 Y69.748 E.51535
G1 X118.874 Y70.282 E.01674
G1 X106.718 Y58.126 E.53903
G1 X106.185 Y58.126 E.01671
G1 X118.874 Y70.815 E.56266
G1 X118.874 Y71.348 E.01671
G1 X105.652 Y58.126 E.5863
G1 X105.119 Y58.126 E.01671
G1 X118.874 Y71.881 E.60993
G1 X118.874 Y72.415 E.01674
G1 X104.585 Y58.126 E.63361
G1 X104.052 Y58.126 E.01671
G1 X118.874 Y72.948 E.65724
G1 X118.874 Y73.481 E.01671
G1 X103.519 Y58.126 E.68088
G1 X102.986 Y58.126 E.01671
G1 X118.874 Y74.014 E.70451
G1 X118.874 Y74.548 E.01674
M73 P0 R405
G1 X102.452 Y58.126 E.72819
G1 X101.919 Y58.126 E.01671
G1 X118.874 Y75.081 E.75183
G1 X118.874 Y75.614 E.01671
G1 X101.386 Y58.126 E.77546
G1 X100.852 Y58.126 E.01674
G1 X118.874 Y76.148 E.79914
G1 X118.874 Y76.681 E.01671
G1 X100.319 Y58.126 E.82277
G1 X99.786 Y58.126 E.01671
G1 X118.874 Y77.214 E.84641
G1 X118.874 Y77.747 E.01671
G1 X99.253 Y58.126 E.87004
G1 X98.719 Y58.126 E.01674
G1 X118.874 Y78.281 E.89372
G1 X118.874 Y78.814 E.01671
G1 X98.186 Y58.126 E.91736
G1 X97.653 Y58.126 E.01671
G1 X118.874 Y79.347 E.94099
G1 X118.874 Y79.881 E.01674
G1 X97.119 Y58.126 E.96467
G1 X96.586 Y58.126 E.01671
G1 X118.874 Y80.414 E.9883
G1 X118.874 Y80.947 E.01671
G1 X96.053 Y58.126 E1.01194
G1 X95.52 Y58.126 E.01671
G1 X118.874 Y81.48 E1.03557
G1 X118.874 Y82.014 E.01674
G1 X94.986 Y58.126 E1.05925
G1 X94.453 Y58.126 E.01671
G1 X118.874 Y82.547 E1.08289
G1 X118.874 Y83.08 E.01671
G1 X93.92 Y58.126 E1.10652
G1 X93.386 Y58.126 E.01674
G1 X118.874 Y83.614 E1.1302
G1 X118.874 Y84.147 E.01671
G1 X92.853 Y58.126 E1.15383
G1 X92.32 Y58.126 E.01671
G1 X118.874 Y84.68 E1.17747
G1 X118.874 Y85.213 E.01671
M73 Q0 S418
G1 X91.787 Y58.126 E1.2011
G1 X91.253 Y58.126 E.01674
G1 X118.874 Y85.747 E1.22478
G1 X118.874 Y86.28 E.01671
G1 X90.72 Y58.126 E1.24842
G1 X90.187 Y58.126 E.01671
G1 X118.874 Y86.813 E1.27205
G1 X118.874 Y87.346 E.01671
G1 X89.654 Y58.126 E1.29569
G1 X89.12 Y58.126 E.01674
G1 X118.874 Y87.88 E1.31936
G1 X118.874 Y88.413 E.01671
G1 X88.587 Y58.126 E1.343
G1 X88.054 Y58.126 E.01671
G1 X118.874 Y88.946 E1.36663
G1 X118.874 Y89.48 E.01674
G1 X87.52 Y58.126 E1.39031
G1 X86.987 Y58.126 E.01671
G1 X118.874 Y90.013 E1.41395
G1 X118.874 Y90.546 E.01671
G1 X86.454 Y58.126 E1.43758
G1 X85.921 Y58.126 E.01671
G1 X118.874 Y91.079 E1.46122
G1 X118.874 Y91.613 E.01674
G1 X85.387 Y58.126 E1.48489
G1 X84.854 Y58.126 E.01671
G1 X118.874 Y92.146 E1.50853
G1 X118.874 Y92.679 E.01671
M73 P0 R404
G1 X84.321 Y58.126 E1.53216
G1 X83.787 Y58.126 E.01674
G1 X118.874 Y93.213 E1.55584
G1 X118.874 Y93.746 E.01671
G1 X83.254 Y58.126 E1.57948
G1 X82.721 Y58.126 E.01671
G1 X118.874 Y94.279 E1.60311
G1 X118.874 Y94.812 E.01671
G1 X82.188 Y58.126 E1.62675
G1 X81.654 Y58.126 E.01674
G1 X118.874 Y95.346 E1.65043
G1 X118.874 Y95.879 E.01671
G1 X81.121 Y58.126 E1.67406
G1 X80.588 Y58.126 E.01671
G1 X118.874 Y96.412 E1.69769
G1 X118.874 Y96.946 E.01674
G1 X80.054 Y58.126 E1.72137
G1 X79.521 Y58.126 E.01671
G1 X118.874 Y97.479 E1.74501
G1 X118.874 Y98.012 E.01671
G1 X78.988 Y58.126 E1.76864
G1 X78.455 Y58.126 E.01671
M73 Q0 S417
G1 X118.874 Y98.545 E1.79228
G1 X118.874 Y99.079 E.01674
G1 X77.921 Y58.126 E1.81596
G1 X77.388 Y58.126 E.01671
G1 X118.874 Y99.612 E1.83959
G1 X118.874 Y100.145 E.01671
G1 X76.855 Y58.126 E1.86322
G1 X76.322 Y58.126 E.01671
G1 X118.874 Y100.678 E1.88686
G1 X118.874 Y101.212 E.01674
G1 X75.788 Y58.126 E1.91054
G1 X75.255 Y58.126 E.01671
G1 X118.874 Y101.745 E1.93417
G1 X118.874 Y102.278 E.01671
G1 X74.722 Y58.126 E1.95781
G1 X74.188 Y58.126 E.01674
G1 X118.874 Y102.812 E1.98149
G1 X118.874 Y103.345 E.01671
G1 X73.655 Y58.126 E2.00512
G1 X73.122 Y58.126 E.01671
M73 P0 R403
G1 X118.874 Y103.878 E2.02875
G1 X118.874 Y104.411 E.01671
G1 X72.589 Y58.126 E2.05239
G1 X72.055 Y58.126 E.01674
G1 X118.874 Y104.945 E2.07607
G1 X118.874 Y105.478 E.01671
G1 X71.522 Y58.126 E2.0997
G1 X70.989 Y58.126 E.01671
G1 X118.874 Y106.011 E2.12334
G1 X118.874 Y106.545 E.01674
G1 X70.455 Y58.126 E2.14702
G1 X69.922 Y58.126 E.01671
G1 X118.874 Y107.078 E2.17065
G1 X118.874 Y107.611 E.01671
G1 X69.389 Y58.126 E2.19428
G1 X68.856 Y58.126 E.01671
M73 P1 R403
G1 X118.874 Y108.144 E2.21792
G1 X118.874 Y108.678 E.01674
M73 Q0 S416
G1 X68.322 Y58.126 E2.2416
G1 X67.789 Y58.126 E.01671
M73 Q1 S416
G1 X118.874 Y109.211 E2.26523
G1 X118.874 Y109.744 E.01671
G1 X67.256 Y58.126 E2.28887
G1 X66.722 Y58.126 E.01674
G1 X118.874 Y110.278 E2.31255
G1 X118.874 Y110.811 E.01671
G1 X66.189 Y58.126 E2.33618
G1 X65.656 Y58.126 E.01671
G1 X118.874 Y111.344 E2.35982
G1 X118.874 Y111.877 E.01671
G1 X65.123 Y58.126 E2.38345
G1 X64.589 Y58.126 E.01674
G1 X118.874 Y112.411 E2.40713
G1 X118.874 Y112.944 E.01671
M73 P1 R402
G1 X64.056 Y58.126 E2.43076
G1 X63.523 Y58.126 E.01671
G1 X118.874 Y113.477 E2.4544
G1 X118.874 Y114.01 E.01671
G1 X62.99 Y58.126 E2.47803
G1 X62.456 Y58.126 E.01674
G1 X118.874 Y114.544 E2.50171
G1 X118.874 Y115.077 E.01671
G1 X61.923 Y58.126 E2.52535
G1 X61.39 Y58.126 E.01671
G1 X118.874 Y115.61 E2.54898
G1 X118.874 Y116.144 E.01674
G1 X60.856 Y58.126 E2.57266
G1 X60.323 Y58.126 E.01671
M73 Q1 S415
G1 X118.874 Y116.677 E2.59629
G1 X118.874 Y117.21 E.01671
G1 X59.79 Y58.126 E2.61993
G1 X59.257 Y58.126 E.01671
G1 X118.874 Y117.743 E2.64356
G1 X118.874 Y118.277 E.01674
G1 X58.723 Y58.126 E2.66724
G1 X58.19 Y58.126 E.01671
G1 X118.874 Y118.81 E2.69088
G1 X118.874 Y119.343 E.01671
G1 X57.657 Y58.126 E2.71451
G1 X57.123 Y58.126 E.01674
G1 X118.874 Y119.877 E2.73819
G1 X118.874 Y120.41 E.01671
M73 P1 R401
G1 X56.59 Y58.126 E2.76182
G1 X56.057 Y58.126 E.01671
G1 X118.874 Y120.943 E2.78546
G1 X118.874 Y121.476 E.01671
G1 X55.524 Y58.126 E2.80909
G1 X54.99 Y58.126 E.01674
G1 X118.874 Y122.01 E2.83277
G1 X118.874 Y122.543 E.01671
G1 X54.457 Y58.126 E2.85641
G1 X53.924 Y58.126 E.01671
G1 X118.874 Y123.076 E2.88004
G1 X118.874 Y123.61 E.01674
G1 X53.39 Y58.126 E2.90372
G1 X52.857 Y58.126 E.01671
M73 Q1 S414
G1 X118.874 Y124.143 E2.92735
G1 X118.874 Y124.676 E.01671
G1 X52.324 Y58.126 E2.95099
G1 X51.791 Y58.126 E.01671
G1 X118.874 Y125.209 E2.97462
G1 X118.874 Y125.743 E.01674
G1 X51.257 Y58.126 E2.9983
G1 X50.724 Y58.126 E.01671
G1 X118.874 Y126.276 E3.02194
G1 X118.874 Y126.809 E.01671
G1 X50.191 Y58.126 E3.04557
G1 X49.658 Y58.126 E.01671
M73 P1 R400
G1 X118.874 Y127.343 E3.06923
G1 X118.874 Y127.876 E.01671
G1 X49.124 Y58.126 E3.09288
G1 X48.591 Y58.126 E.01671
G1 X118.874 Y128.409 E3.11652
G1 X118.874 Y128.942 E.01671
G1 X48.058 Y58.126 E3.14015
G1 X47.524 Y58.126 E.01674
G1 X118.874 Y129.476 E3.16383
G1 X118.874 Y130.009 E.01671
G1 X46.991 Y58.126 E3.18747
G1 X46.458 Y58.126 E.01671
M73 Q1 S413
G1 X118.874 Y130.542 E3.2111
G1 X118.874 Y131.075 E.01671
G1 X45.925 Y58.126 E3.23474
G1 X45.391 Y58.126 E.01674
G1 X118.874 Y131.609 E3.25841
G1 X118.874 Y132.142 E.01671
G1 X44.858 Y58.126 E3.28205
G1 X44.325 Y58.126 E.01671
G1 X118.874 Y132.675 E3.30568
G1 X118.874 Y133.209 E.01674
G1 X43.791 Y58.126 E3.32936
G1 X43.258 Y58.126 E.01671
M73 P1 R399
G1 X118.874 Y133.742 E3.353
G1 X118.874 Y134.275 E.01671
G1 X42.725 Y58.126 E3.37663
G1 X42.192 Y58.126 E.01671
G1 X118.874 Y134.808 E3.40027
G1 X118.874 Y135.342 E.01674
G1 X41.658 Y58.126 E3.42394
G1 X41.125 Y58.126 E.01671
G1 X118.874 Y135.875 E3.44758
G1 X118.874 Y136.408 E.01671
M73 Q1 S412
G1 X40.592 Y58.126 E3.47121
G1 X40.058 Y58.126 E.01674
M73 P2 R399
G1 X118.874 Y136.942 E3.49489
G1 X118.874 Y137.475 E.01671
G1 X39.525 Y58.126 E3.51853
G1 X38.992 Y58.126 E.01671
G1 X118.874 Y138.008 E3.54216
G1 X118.874 Y138.541 E.01671
M73 Q2 S412
G1 X38.459 Y58.126 E3.5658
G1 X37.925 Y58.126 E.01674
G1 X118.874 Y139.075 E3.58948
G1 X118.874 Y139.608 E.01671
M73 P2 R398
G1 X37.392 Y58.126 E3.61311
G1 X36.859 Y58.126 E.01671
G1 X118.874 Y140.141 E3.63674
G1 X118.874 Y140.675 E.01674
G1 X36.325 Y58.126 E3.66042
G1 X35.792 Y58.126 E.01671
G1 X118.874 Y141.208 E3.68406
G1 X118.874 Y141.741 E.01671
G1 X35.259 Y58.126 E3.70769
G1 X34.726 Y58.126 E.01671
M73 Q2 S411
G1 X118.874 Y142.274 E3.73133
G1 X118.874 Y142.808 E.01674
G1 X34.192 Y58.126 E3.75501
G1 X33.659 Y58.126 E.01671
G1 X118.874 Y143.341 E3.77864
G1 X118.874 Y143.874 E.01671
G1 X33.126 Y58.126 E3.80227
G1 X32.593 Y58.126 E.01671
G1 X118.874 Y144.407 E3.82591
G1 X118.874 Y144.941 E.01674
M73 P2 R397
G1 X32.059 Y58.126 E3.84959
G1 X31.526 Y58.126 E.01671
G1 X118.874 Y145.474 E3.87322
G1 X118.874 Y146.007 E.01671
G1 X30.993 Y58.126 E3.89686
G1 X30.459 Y58.126 E.01674
G1 X118.874 Y146.541 E3.92054
G1 X118.874 Y147.074 E.01671
G1 X29.926 Y58.126 E3.94417
G1 X29.393 Y58.126 E.01671
M73 Q2 S410
G1 X118.874 Y147.607 E3.9678
G1 X118.874 Y148.14 E.01671
G1 X28.86 Y58.126 E3.99144
G1 X28.326 Y58.126 E.01674
G1 X118.874 Y148.674 E4.01512
G1 X118.874 Y149.207 E.01671
G1 X27.793 Y58.126 E4.03875
G1 X27.26 Y58.126 E.01671
M73 P2 R396
G1 X118.874 Y149.74 E4.06239
G1 X118.874 Y150.274 E.01674
G1 X26.726 Y58.126 E4.08607
G1 X26.193 Y58.126 E.01671
G1 X118.874 Y150.807 E4.1097
G1 X118.874 Y151.34 E.01671
G1 X25.66 Y58.126 E4.13333
G1 X25.127 Y58.126 E.01671
G1 X118.874 Y151.874 E4.15699
G1 X118.34 Y151.874 E.01674
M73 Q2 S409
G1 X25.126 Y58.66 E4.13333
G1 X25.126 Y59.193 E.01671
G1 X117.807 Y151.874 E4.1097
G1 X117.274 Y151.874 E.01671
G1 X25.126 Y59.726 E4.08607
G1 X25.126 Y60.259 E.01671
G1 X116.741 Y151.874 E4.06243
G1 X116.207 Y151.874 E.01674
M73 P2 R395
G1 X25.126 Y60.793 E4.03875
G1 X25.126 Y61.326 E.01671
G1 X115.674 Y151.874 E4.01512
G1 X115.141 Y151.874 E.01671
G1 X25.126 Y61.859 E3.99148
G1 X25.126 Y62.393 E.01674
G1 X114.607 Y151.874 E3.9678
G1 X114.074 Y151.874 E.01671
G1 X25.126 Y62.926 E3.94417
G1 X25.126 Y63.459 E.01671
M73 Q2 S408
G1 X113.541 Y151.874 E3.92054
G1 X113.008 Y151.874 E.01671
M73 P3 R395
G1 X25.126 Y63.992 E3.8969
G1 X25.126 Y64.526 E.01674
G1 X112.474 Y151.874 E3.87322
G1 X111.941 Y151.874 E.01671
G1 X25.126 Y65.059 E3.84959
G1 X25.126 Y65.592 E.01671
G1 X111.408 Y151.874 E3.82595
G1 X110.875 Y151.874 E.01671
M73 P3 R394
M73 Q3 S408
G1 X25.126 Y66.125 E3.80232
G1 X25.126 Y66.659 E.01674
G1 X110.341 Y151.874 E3.77864
G1 X109.808 Y151.874 E.01671
G1 X25.126 Y67.192 E3.75501
G1 X25.126 Y67.725 E.01671
G1 X109.275 Y151.874 E3.73137
G1 X108.741 Y151.874 E.01674
G1 X25.126 Y68.259 E3.70769
G1 X25.126 Y68.792 E.01671
M73 Q3 S407
G1 X108.208 Y151.874 E3.68406
G1 X107.675 Y151.874 E.01671
G1 X25.126 Y69.325 E3.66042
G1 X25.126 Y69.858 E.01671
G1 X107.142 Y151.874 E3.63679
G1 X106.608 Y151.874 E.01674
G1 X25.126 Y70.392 E3.61311
G1 X25.126 Y70.925 E.01671
G1 X106.075 Y151.874 E3.58948
G1 X105.542 Y151.874 E.01671
M73 P3 R393
G1 X25.126 Y71.458 E3.56584
G1 X25.126 Y71.992 E.01674
G1 X105.008 Y151.874 E3.54216
G1 X104.475 Y151.874 E.01671
G1 X25.126 Y72.525 E3.51853
G1 X25.126 Y73.058 E.01671
G1 X103.942 Y151.874 E3.49489
G1 X103.409 Y151.874 E.01671
G1 X25.126 Y73.591 E3.47126
G1 X25.126 Y74.125 E.01674
M73 Q3 S406
G1 X102.875 Y151.874 E3.44758
G1 X102.342 Y151.874 E.01671
G1 X25.126 Y74.658 E3.42394
G1 X25.126 Y75.191 E.01671
G1 X101.809 Y151.874 E3.40031
G1 X101.275 Y151.874 E.01674
G1 X25.126 Y75.725 E3.37663
G1 X25.126 Y76.258 E.01671
G1 X100.742 Y151.874 E3.353
G1 X100.209 Y151.874 E.01671
G1 X25.126 Y76.791 E3.32936
G1 X25.126 Y77.324 E.01671
M73 P3 R392
G1 X99.676 Y151.874 E3.30573
G1 X99.142 Y151.874 E.01674
G1 X25.126 Y77.858 E3.28205
G1 X25.126 Y78.391 E.01671
G1 X98.609 Y151.874 E3.25841
G1 X98.076 Y151.874 E.01671
G1 X25.126 Y78.924 E3.23478
G1 X25.126 Y79.457 E.01671
